img/medium.svg

<?xml version="1.0" encoding="UTF-8"?>
<svg width="20px" height="16px" viewBox="0 0 20 16" version="1.1" xmlns="http://www.w3.org/2000/svg" xmlns:xlink="http://www.w3.org/1999/xlink">
    <!-- Generator: Sketch 48.2 (47327) - http://www.bohemiancoding.com/sketch -->
    <title>Medium</title>
    <desc>Created with Sketch.</desc>
    <defs></defs>
    <g id="ETHindia-Team" stroke="none" stroke-width="1" fill="none" fill-rule="evenodd" transform="translate(-1248.000000, -993.000000)">
        <g id="Group-2" transform="translate(1068.000000, 991.000000)">
            <g id="Medium" transform="translate(180.000000, 0.000000)">
                <rect id="Rectangle-Copy" x="0" y="0" width="20" height="20"></rect>
                <g id="medium-1" transform="translate(0.000000, 2.000000)" fill="#00A7D3" fill-rule="nonzero">
                    <path d="M20,2.34057955 L19.2089844,2.34057955 C18.9153125,2.34057955 18.5,2.7655624 18.5,3.03757337 L18.5,12.8981473 C18.5,13.1704718 18.9153125,13.5417734 19.2089844,13.5417734 L20,13.5417734 L20,15.8823529 L12.8333594,15.8823529 L12.8333594,13.5417734 L14.3333594,13.5417734 L14.3333594,3.17643924 L14.2598437,3.17643924 L10.7570313,15.8823529 L8.04515625,15.8823529 L4.5875,3.17643924 L4.5,3.17643924 L4.5,13.5417734 L6,13.5417734 L6,15.8823529 L0,15.8823529 L0,13.5417734 L0.768359375,13.5417734 C1.0846875,13.5417734 1.5,13.1704718 1.5,12.8981473 L1.5,3.037495 C1.5,2.76548404 1.0846875,2.34050118 0.768359375,2.34050118 L0,2.34050118 L0,0 L7.50265625,0 L9.9659375,9.19500519 L10.0339062,9.19500519 L12.5197656,0 L20,0 L20,2.34057955" id="Shape"></path>
                </g>
            </g>
        </g>
    </g>
</svg>

<?xml version="1.0" encoding="utf-8"?>
<!-- Generator: Adobe Illustrator 22.1.0, SVG Export Plug-In . SVG Version: 6.00 Build 0)  -->
<svg version="1.1" id="Layer_1" xmlns="http://www.w3.org/2000/svg" xmlns:xlink="http://www.w3.org/1999/xlink" x="0px" y="0px"
	 viewBox="0 0 20 16" style="enable-background:new 0 0 20 16;" xml:space="preserve">
<style type="text/css">
	.st0{fill:none;}
	.st1{fill:#FFA600;}
</style>
<title>Medium</title>
<desc>Created with Sketch.</desc>
<g id="ETHindia-Team" transform="translate(-1248.000000, -993.000000)">
	<g id="Group-2" transform="translate(1068.000000, 991.000000)">
		<g id="Medium" transform="translate(180.000000, 0.000000)">
			<rect id="Rectangle-Copy" class="st0" width="20" height="20"/>
			<g id="medium-1" transform="translate(0.000000, 2.000000)">
				<path id="Shape" class="st1" d="M20,2.3h-0.8c-0.3,0-0.7,0.4-0.7,0.7v9.9c0,0.3,0.4,0.6,0.7,0.6H20v2.3h-7.2v-2.3h1.5V3.2h-0.1
					l-3.5,12.7H8L4.6,3.2H4.5v10.4H6v2.3H0v-2.3h0.8c0.3,0,0.7-0.4,0.7-0.6V3c0-0.3-0.4-0.7-0.7-0.7H0V0h7.5L10,9.2H10L12.5,0H20
					V2.3"/>
			</g>
		</g>
	</g>
</g>
</svg>
